public/images/ic_search-blue.svg

<?xml version="1.0" encoding="UTF-8" standalone="no"?>
<svg width="18px" height="18px" viewBox="0 0 18 18" version="1.1" xmlns="http://www.w3.org/2000/svg" xmlns:xlink="http://www.w3.org/1999/xlink">
    <!-- Generator: Sketch 3.6.1 (26313) - http://www.bohemiancoding.com/sketch -->
    <title>search</title>
    <desc>Created with Sketch.</desc>
    <defs></defs>
    <g id="Page-1" stroke="none" stroke-width="1" fill="none" fill-rule="evenodd">
        <g id="search" fill="#0042B1">
            <path d="M12.5017484,11.7278926 C13.6870235,10.4845165 14.4264819,8.8196281 14.4264819,6.98615702 C14.4264819,3.14007025 11.1968443,0 7.21688699,0 C3.23692964,0 0.00729211087,3.14007025 0.00729211087,6.98615702 C0.00729211087,10.8322438 3.23692964,13.972314 7.21688699,13.972314 C8.83715565,13.972314 10.3268955,13.4560041 11.5339318,12.581405 L16.8948998,17.7762273 C17.0253902,17.9026736 17.1885032,17.9658967 17.3516162,17.9658967 C17.5147292,17.9658967 17.6887036,17.9026736 17.8083326,17.7762273 C18.058452,17.5338595 18.058452,17.1334711 17.8083326,16.8805785 L12.5017484,11.7278926 L12.5017484,11.7278926 Z M1.31219616,6.98615702 C1.31219616,3.83552479 3.95462687,1.26446281 7.21688699,1.26446281 C10.4682857,1.26446281 13.1215778,3.825 13.1215778,6.98615702 C13.1215778,10.147314 10.4791471,12.7078512 7.21688699,12.7078512 C3.95462687,12.7078512 1.31219616,10.1367893 1.31219616,6.98615702 L1.31219616,6.98615702 Z" id="Shape"></path>
        </g>
    </g>
</svg>

<svg width="18" height="18" viewBox="0 0 18 18" xmlns="http://www.w3.org/2000/svg"><title>search</title><path d="M12.502 11.728c1.185-1.243 1.924-2.908 1.924-4.742C14.426 3.14 11.196 0 7.216 0S.008 3.14.008 6.986c0 3.846 3.23 6.986 7.21 6.986 1.62 0 3.11-.516 4.317-1.39l5.36 5.194c.131.127.295.19.458.19a.636.636 0 0 0 .456-.19.628.628 0 0 0 0-.895l-5.306-5.153zM1.312 6.986c0-3.15 2.643-5.722 5.905-5.722 3.251 0 5.905 2.561 5.905 5.722 0 3.161-2.643 5.722-5.905 5.722-3.262 0-5.905-2.571-5.905-5.722z" fill="#0042B1" fill-rule="evenodd"/></svg>
